!! Stephen C. Foster, "Some Folks"
!! from 'Stephen Foster Song Book' Dover Publications (New York) pp. 115-117
!! NOTE:  Leading and trailing bars of rest have been omitted.
**kern
*M2/4
*MM68
*F:
=1
8a
8a
8a
8a
=2
4.cc
8r
=3
8b-
8b-
8g
8r
=4
8a
8a
8f
8r
=5
8a
8a
8a
8a
=6
4cc
8.r;
16b-
=7
8a
8cc
8b-
8g
=8
4.f
8r
!! Chorus:
=9
4dd
8.cc
16a
=10
16b-
16a
16g
16f
8e
8c
=11
8f
8f
8g
8g
=12
4a
8r
16a
16b-
=13
4cc
4ff
=14
4cc
8r
8b-
=15
16a
16a
8a
8b-
8g
=16
4.f
8r
==
*-
